images/user.svg

<svg width="64" height="64" viewBox="0 0 64 64" fill="none" xmlns="http://www.w3.org/2000/svg">
<path fill-rule="evenodd" clip-rule="evenodd" d="M17.1143 48.6305C27.9522 47.0472 35.4145 47.1833 46.2666 48.6859C47.0525 48.7998 47.7707 49.1943 48.2884 49.7964C48.8062 50.3986 49.0885 51.1677 49.0834 51.9618C49.0834 52.7218 48.8221 53.4597 48.3503 54.036C47.5279 55.0408 46.6854 56.029 45.8233 57H50.0049C50.2677 56.6865 50.5321 56.3667 50.7997 56.0421C51.7389 54.8904 52.2512 53.4495 52.25 51.9634C52.25 48.7572 49.9099 45.9943 46.7005 45.5509C35.5918 44.0135 27.8271 43.8663 16.6567 45.4987C13.414 45.9721 11.0834 48.7778 11.0834 52.0062C11.0834 53.4391 11.5505 54.8562 12.4355 56.0041C12.6968 56.3429 12.9549 56.6754 13.2114 57.0016H17.2916C16.4895 56.0413 15.7072 55.0647 14.9451 54.0724C14.4922 53.4784 14.2479 52.7516 14.25 52.0046C14.25 50.2993 15.4755 48.8696 17.1143 48.6305Z" fill="#BEBEBE"/>
<path fill-rule="evenodd" clip-rule="evenodd" d="M31.6667 33.25C32.9142 33.25 34.1496 33.0043 35.3022 32.5269C36.4548 32.0494 37.502 31.3497 38.3842 30.4675C39.2663 29.5854 39.9661 28.5381 40.4435 27.3855C40.9209 26.2329 41.1667 24.9976 41.1667 23.75C41.1667 22.5025 40.9209 21.2671 40.4435 20.1145C39.9661 18.9619 39.2663 17.9147 38.3842 17.0325C37.502 16.1503 36.4548 15.4506 35.3022 14.9732C34.1496 14.4957 32.9142 14.25 31.6667 14.25C29.1471 14.25 26.7307 15.2509 24.9492 17.0325C23.1676 18.8141 22.1667 21.2305 22.1667 23.75C22.1667 26.2696 23.1676 28.6859 24.9492 30.4675C26.7307 32.2491 29.1471 33.25 31.6667 33.25ZM31.6667 36.4167C35.0261 36.4167 38.2479 35.0822 40.6234 32.7067C42.9988 30.3312 44.3333 27.1094 44.3333 23.75C44.3333 20.3906 42.9988 17.1688 40.6234 14.7933C38.2479 12.4179 35.0261 11.0833 31.6667 11.0833C28.3073 11.0833 25.0854 12.4179 22.71 14.7933C20.3345 17.1688 19 20.3906 19 23.75C19 27.1094 20.3345 30.3312 22.71 32.7067C25.0854 35.0822 28.3073 36.4167 31.6667 36.4167Z" fill="#BEBEBE"/>
<path fill-rule="evenodd" clip-rule="evenodd" d="M31.6667 60.1667C47.4066 60.1667 60.1667 47.4066 60.1667 31.6667C60.1667 15.9268 47.4066 3.16667 31.6667 3.16667C15.9268 3.16667 3.16667 15.9268 3.16667 31.6667C3.16667 47.4066 15.9268 60.1667 31.6667 60.1667ZM31.6667 63.3333C49.1562 63.3333 63.3333 49.1562 63.3333 31.6667C63.3333 14.1772 49.1562 0 31.6667 0C14.1772 0 0 14.1772 0 31.6667C0 49.1562 14.1772 63.3333 31.6667 63.3333Z" fill="#BEBEBE"/>
</svg>

<svg width="64" height="64" fill="none" xmlns="http://www.w3.org/2000/svg"><path fill-rule="evenodd" clip-rule="evenodd" d="M17.114 48.63c10.838-1.583 18.3-1.447 29.153.056a3.289 3.289 0 0 1 2.816 3.276c0 .76-.26 1.498-.733 2.074A97 97 0 0 1 45.823 57h4.182c.263-.313.527-.633.795-.958a6.446 6.446 0 0 0 1.45-4.079c0-3.206-2.34-5.969-5.55-6.412-11.108-1.538-18.873-1.685-30.043-.052-3.243.473-5.574 3.279-5.574 6.507a6.56 6.56 0 0 0 1.352 3.998c.262.339.52.671.776.998h4.08a91.672 91.672 0 0 1-2.346-2.93 3.395 3.395 0 0 1-.695-2.067c0-1.706 1.226-3.135 2.864-3.375ZM31.667 33.25a9.5 9.5 0 1 0 0-19.001 9.5 9.5 0 0 0 0 19.001Zm0 3.167a12.667 12.667 0 1 0 0-25.334 12.667 12.667 0 0 0 0 25.334Z" fill="#BEBEBE"/><path fill-rule="evenodd" clip-rule="evenodd" d="M31.667 60.167c15.74 0 28.5-12.76 28.5-28.5s-12.76-28.5-28.5-28.5-28.5 12.76-28.5 28.5 12.76 28.5 28.5 28.5Zm0 3.166c17.49 0 31.666-14.177 31.666-31.666C63.333 14.177 49.156 0 31.667 0 14.177 0 0 14.177 0 31.667c0 17.49 14.177 31.666 31.667 31.666Z" fill="#BEBEBE"/></svg>
